assets/svg/wallet_icon_wallet_emptyhistory.svg

<svg width="48" height="48" viewBox="0 0 48 48" fill="none" xmlns="http://www.w3.org/2000/svg">
<path d="M35.8809 14.2761V39.7105C35.8809 41.5836 34.3622 43.1023 32.4891 43.1023H15.2231C14.1637 43.1023 13.1812 43.6564 12.6328 44.5639H36.1678C36.7303 44.5639 37.1869 44.1083 37.1869 43.5448V11.7852L37.1016 11.8489C36.7229 12.1302 36.4152 12.4962 36.2033 12.9177C35.9913 13.3391 35.881 13.8043 35.8809 14.2761Z" fill="#E1EAF8"/>
<path d="M17.143 20.2852H13.9742C13.6452 20.2852 13.3789 20.0189 13.3789 19.6898V16.5211C13.3789 16.192 13.6452 15.9258 13.9742 15.9258H17.143C17.472 15.9258 17.7383 16.192 17.7383 16.5211V19.6898C17.7383 20.018 17.472 20.2852 17.143 20.2852ZM17.143 27.667H13.9742C13.6452 27.667 13.3789 27.4008 13.3789 27.0717V23.903C13.3789 23.5739 13.6452 23.3077 13.9742 23.3077H17.143C17.472 23.3077 17.7383 23.5739 17.7383 23.903V27.0717C17.7383 27.3998 17.472 27.667 17.143 27.667ZM17.143 35.048H13.9742C13.6452 35.048 13.3789 34.7817 13.3789 34.4527V31.2839C13.3789 30.9548 13.6452 30.6886 13.9742 30.6886H17.143C17.472 30.6886 17.7383 30.9548 17.7383 31.2839V34.4527C17.7383 34.7817 17.472 35.048 17.143 35.048Z" fill="#0166FF"/>
<path d="M30.0317 4.23219H37.8083C38.713 4.23219 39.4489 4.96812 39.4489 5.87281V45.1878C39.4489 46.0925 38.713 46.8284 37.8083 46.8284H10.1914C9.28672 46.8284 8.55078 46.0925 8.55078 45.1878V13.5612C8.55078 13.3803 8.69797 13.2331 8.87891 13.2331C9.05984 13.2331 9.20703 13.3803 9.20703 13.5612V45.1878C9.20703 45.7306 9.64859 46.1722 10.1914 46.1722H37.8083C38.3511 46.1722 38.7927 45.7306 38.7927 45.1878V5.87281C38.7927 5.33 38.3511 4.88844 37.8083 4.88844H30.0317H17.9689H10.1923C9.64953 4.88844 9.20797 5.33 9.20797 5.87281V11.0347C9.20797 11.2156 9.06078 11.3628 8.87984 11.3628C8.69891 11.3628 8.55172 11.2156 8.55172 11.0347V5.87281C8.55172 4.96812 9.28766 4.23219 10.1923 4.23219H17.9689H30.0317Z" fill="#9A9A9A"/>
<path d="M11.0623 6.16719H17.9689H28.6723C28.8533 6.16719 29 6.31388 29 6.49484C29 6.6758 28.8533 6.8225 28.6723 6.8225H17.968H11.142V44.2372H36.8577V6.8225H31.8505C31.6695 6.8225 31.5223 6.67531 31.5223 6.49437C31.5223 6.31344 31.6695 6.16625 31.8505 6.16625H36.9373C37.2552 6.16625 37.5139 6.425 37.5139 6.74281V44.3178C37.5139 44.6356 37.2552 44.8944 36.9373 44.8944H11.0623C10.7445 44.8944 10.4858 44.6356 10.4858 44.3178V6.74375C10.4858 6.42594 10.7445 6.16719 11.0623 6.16719Z" fill="#9A9A9A"/>
<path d="M26.1966 9.3418H21.8035C21.6226 9.3418 21.4754 9.48898 21.4754 9.66992C21.4754 9.85086 21.6226 9.99805 21.8035 9.99805H26.1966C26.3776 9.99805 26.5248 9.85086 26.5248 9.66992C26.5248 9.48898 26.3776 9.3418 26.1966 9.3418ZM33.1098 16.4268H19.3145C19.1335 16.4268 18.9863 16.574 18.9863 16.7549C18.9863 16.9359 19.1335 17.083 19.3145 17.083H33.1088C33.2898 17.083 33.437 16.9359 33.437 16.7549C33.437 16.574 33.2907 16.4268 33.1098 16.4268ZM19.3145 19.7821H31.9191C32.1001 19.7821 32.2473 19.6349 32.2473 19.454C32.2473 19.273 32.1001 19.1259 31.9191 19.1259H19.3145C19.1335 19.1259 18.9863 19.273 18.9863 19.454C18.9863 19.6349 19.1335 19.7821 19.3145 19.7821ZM33.1098 23.8077H19.3145C19.1335 23.8077 18.9863 23.9549 18.9863 24.1359C18.9863 24.3168 19.1335 24.464 19.3145 24.464H33.1088C33.2898 24.464 33.437 24.3168 33.437 24.1359C33.437 23.9549 33.2907 23.8077 33.1098 23.8077ZM19.3145 27.164H31.9191C32.1001 27.164 32.2473 27.0168 32.2473 26.8359C32.2473 26.6549 32.1001 26.5077 31.9191 26.5077H19.3145C19.1335 26.5077 18.9863 26.6549 18.9863 26.8359C18.9863 27.0168 19.1335 27.164 19.3145 27.164ZM33.4379 31.5177C33.4379 31.3368 33.2907 31.1896 33.1098 31.1896H19.3145C19.1335 31.1896 18.9863 31.3368 18.9863 31.5177C18.9863 31.6987 19.1335 31.8459 19.3145 31.8459H33.1088C33.2907 31.8459 33.4379 31.6987 33.4379 31.5177ZM19.3145 33.8887C19.1335 33.8887 18.9863 34.0359 18.9863 34.2168C18.9863 34.3977 19.1335 34.5449 19.3145 34.5449H31.9191C32.1001 34.5449 32.2473 34.3977 32.2473 34.2168C32.2473 34.0359 32.1001 33.8887 31.9191 33.8887H19.3145Z" fill="#9A9A9A"/>
<path d="M43.6483 29.3202C43.5933 29.3202 43.5391 29.3063 43.4908 29.2799L41.3496 28.1071C41.3117 28.0864 41.2784 28.0585 41.2513 28.0249C41.2243 27.9914 41.2042 27.9528 41.192 27.9114C41.1799 27.8701 41.1761 27.8267 41.1808 27.7839C41.1855 27.741 41.1985 27.6995 41.2193 27.6618C41.3064 27.5024 41.5061 27.4443 41.6646 27.5314L43.8058 28.7043C43.9652 28.7914 44.0233 28.9911 43.9361 29.1496C43.908 29.2013 43.8663 29.2444 43.8157 29.2745C43.765 29.3045 43.7072 29.3203 43.6483 29.3202ZM41.6796 20.7168C41.553 20.7168 41.433 20.6436 41.3786 20.5208C41.3055 20.3549 41.3814 20.1618 41.5464 20.0886L43.7805 19.1061C43.9464 19.033 44.1396 19.108 44.2127 19.2739C44.2858 19.4399 44.2099 19.633 44.0449 19.7061L41.8108 20.6886C41.7686 20.7083 41.7236 20.7168 41.6796 20.7168ZM4.35207 29.3202C4.23582 29.3202 4.12332 29.2583 4.06425 29.1496C4.04352 29.1118 4.03045 29.0703 4.02578 29.0274C4.02112 28.9846 4.02494 28.9412 4.03705 28.8999C4.04915 28.8585 4.06929 28.8199 4.09632 28.7864C4.12335 28.7528 4.15674 28.7249 4.19457 28.7043L6.33582 27.5314C6.49425 27.4443 6.69394 27.5024 6.78113 27.6618C6.86832 27.8202 6.81019 28.0199 6.65082 28.1071L4.50957 29.2799C4.45894 29.3071 4.4055 29.3202 4.35207 29.3202ZM6.32082 20.7168C6.27675 20.7168 6.23175 20.7074 6.18863 20.6886L3.95363 19.7061C3.78769 19.633 3.71269 19.4399 3.78582 19.2739C3.85894 19.108 4.05207 19.033 4.218 19.1061L6.45207 20.0886C6.618 20.1618 6.693 20.3549 6.61988 20.5208C6.56738 20.6436 6.44644 20.7168 6.32082 20.7168Z" fill="#0166FF"/>
</svg>

<svg xmlns="http://www.w3.org/2000/svg" width="48" height="48" fill="none"><path fill="#E1EAF8" d="M35.88 14.276v25.435a3.39 3.39 0 0 1-3.39 3.391H15.222c-1.06 0-2.042.554-2.59 1.462h23.535c.562 0 1.019-.456 1.019-1.02V11.786l-.085.064a3.02 3.02 0 0 0-1.221 2.427"/><path fill="#0166FF" d="M17.143 20.285h-3.169a.595.595 0 0 1-.595-.595V16.52c0-.329.266-.595.595-.595h3.169c.329 0 .595.266.595.595v3.169a.596.596 0 0 1-.595.595m0 7.382h-3.169a.595.595 0 0 1-.595-.595v-3.169c0-.33.266-.595.595-.595h3.169c.329 0 .595.266.595.595v3.169a.596.596 0 0 1-.595.595m0 7.381h-3.169a.595.595 0 0 1-.595-.595v-3.17c0-.328.266-.594.595-.594h3.169c.329 0 .595.266.595.595v3.169a.595.595 0 0 1-.595.595"/><path fill="#9A9A9A" d="M30.032 4.232h7.776c.905 0 1.64.736 1.64 1.64v39.316c0 .904-.735 1.64-1.64 1.64H10.191c-.904 0-1.64-.736-1.64-1.64V13.56a.328.328 0 0 1 .656 0v31.627c0 .543.442.984.984.984h27.617a.986.986 0 0 0 .985-.984V5.873a.985.985 0 0 0-.985-.985H10.192a.985.985 0 0 0-.984.985v5.162a.328.328 0 0 1-.656 0V5.873c0-.905.736-1.64 1.64-1.64h19.84"/><path fill="#9A9A9A" d="M11.062 6.167h17.61a.328.328 0 1 1 0 .656h-17.53v37.414h25.716V6.822H31.85a.329.329 0 0 1 0-.656h5.086c.318 0 .577.259.577.577v37.575a.577.577 0 0 1-.577.576H11.062a.577.577 0 0 1-.576-.576V6.744c0-.318.258-.577.576-.577"/><path fill="#9A9A9A" d="M26.197 9.342h-4.393a.328.328 0 0 0 0 .656h4.393a.329.329 0 0 0 0-.656m6.913 7.085H19.315a.329.329 0 0 0 0 .656h13.794a.328.328 0 0 0 0-.656m-13.795 3.355h12.604a.329.329 0 0 0 0-.656H19.314a.328.328 0 0 0 0 .656m13.795 4.026H19.315a.329.329 0 0 0 0 .656h13.794a.329.329 0 0 0 0-.656m-13.795 3.356h12.604a.329.329 0 0 0 0-.656H19.314a.329.329 0 0 0 0 .656m14.123 4.354a.33.33 0 0 0-.328-.328H19.315a.329.329 0 0 0 0 .656h13.794c.182 0 .329-.147.329-.328m-14.124 2.37a.329.329 0 0 0 0 .657H31.92a.329.329 0 0 0 0-.656z"/><path fill="#0166FF" d="M43.648 29.32a.33.33 0 0 1-.157-.04l-2.141-1.173a.328.328 0 1 1 .315-.576l2.14 1.173a.328.328 0 0 1-.157.616m-1.968-8.603a.329.329 0 0 1-.134-.628l2.235-.983a.328.328 0 1 1 .264.6l-2.234.983a.3.3 0 0 1-.131.028M4.352 29.32a.327.327 0 0 1-.157-.616l2.14-1.173a.328.328 0 1 1 .316.576L4.51 29.28a.33.33 0 0 1-.158.04m1.969-8.603a.3.3 0 0 1-.132-.028l-2.235-.983a.327.327 0 1 1 .264-.6l2.234.983a.328.328 0 0 1-.131.628"/></svg>
